src/actions/24/texlion.svg

<svg xmlns="http://www.w3.org/2000/svg" viewBox="0 0 24 24">
  <defs id="defs3051">
    <style type="text/css" id="current-color-scheme">
      .ColorScheme-Text {
        color:#2e3440;
      }
      </style>
  </defs><g transform="translate(1,1)">
 <path 
     style="fill:currentColor;fill-opacity:1;stroke:none" 
     d="M 10.294118,20.038367 C 9.6074248,18.969234 9.3611718,18.797333 9.0501174,19.169972 c -0.1160392,0.139014 -0.2736981,0.252752 -0.3503528,0.252752 -0.076652,0 -0.5108771,-0.517619 -0.9649371,-1.150263 C 6.8340911,17.01746 6.3957348,16.867941 6.2266938,17.75805 6.1326746,18.253128 6.0856707,18.201369 5.3812078,16.827018 4.9709466,16.026628 4.5137464,15.325396 4.365209,15.268727 c -0.1485376,-0.05667 -0.473796,-0.01078 -0.7227963,0.102044 -0.2490004,0.1128 -0.4926209,0.165425 -0.5413795,0.116948 -0.048759,-0.04848 0.083437,-0.770307 0.2937559,-1.604064 0.4553318,-1.805013 0.3583579,-2.063898 -0.7095108,-1.894122 -0.5257115,0.08358 -0.685278,0.05096 -0.685278,-0.140136 0,-0.136997 0.5090678,-1.108107 1.1312615,-2.1580212 1.0636521,-1.7948516 1.115618,-1.9326727 0.86953,-2.3060881 -0.6421676,-0.9744285 0.3132023,-2.1743759 1.731188,-2.1743759 0.3738816,0 0.6797851,-0.047822 0.6797851,-0.1062666 0,-0.058444 -0.1985297,-0.3408432 -0.4411769,-0.627552 C 5.7279409,4.1903844 5.5294122,3.8925234 5.5294122,3.8151801 c 0,-0.077344 0.5219331,-0.043111 1.1598505,0.076078 L 7.8491144,4.1079622 7.7395614,3.6739657 C 7.6793032,3.435268 7.5845433,3.0139726 7.5289799,2.7377538 L 7.4279538,2.2355384 8.5404607,2.6849872 9.6529668,3.1344359 9.9652598,2.7251727 C 10.137021,2.5000772 10.412459,2.0198285 10.577344,1.6579542 10.74223,1.2960788 10.932426,1 11.000004,1 c 0.06758,0 0.257775,0.2960788 0.422659,0.6579542 0.164887,0.3618743 0.440324,0.842123 0.612085,1.0672185 l 0.312293,0.4092632 1.112506,-0.4494487 1.112506,-0.4494488 -0.101027,0.5022154 c -0.05556,0.2762188 -0.151446,0.7019564 -0.213073,0.9460852 -0.121641,0.4818654 -0.177339,0.4809165 1.815579,0.030945 0.54346,-0.1227055 0.498045,0.1413788 -0.150633,0.8759296 l -0.547693,0.6201954 0.786299,0 c 1.525256,0 2.505956,1.1603673 1.837705,2.1743759 -0.246088,0.3734154 -0.19412,0.5112364 0.869529,2.306088 C 19.490934,10.741288 20,11.712398 20,11.849394 c 0,0.191087 -0.159565,0.223718 -0.685278,0.140137 -1.067868,-0.169777 -1.164843,0.08911 -0.709508,1.894121 0.210322,0.833758 0.342512,1.555588 0.293753,1.604064 -0.04876,0.04848 -0.292378,-0.0041 -0.541377,-0.116947 -0.249003,-0.112798 -0.574262,-0.158721 -0.722797,-0.102045 -0.148537,0.05667 -0.605737,0.757901 -1.015999,1.558291 -0.704461,1.37435 -0.751464,1.426109 -0.845487,0.931032 -0.169038,-0.890109 -0.607394,-0.74059 -1.508132,0.514411 -0.454062,0.632644 -0.888283,1.150263 -0.964936,1.150263 -0.07665,0 -0.234315,-0.113738 -0.350354,-0.252753 -0.311055,-0.372638 -0.557307,-0.200737 -1.244,0.868396 C 11.36618,20.567265 11.048533,21 11.000003,21 10.951463,21 10.633826,20.567265 10.29412,20.038364 Z m 2.195877,-3.461954 c 0.437404,-0.620888 0.353924,-1.013685 -0.215435,-1.013685 -0.269582,0 -0.666639,-0.12291 -0.882354,-0.27313 -0.354977,-0.247206 -0.429436,-0.247206 -0.784412,0 -0.215714,0.15022 -0.6127742,0.27313 -0.8823532,0.27313 -0.569362,0 -0.652841,0.392797 -0.215435,1.013685 0.23866,0.338773 0.434207,0.38995 1.4899942,0.38995 1.055786,0 1.251333,-0.05118 1.489994,-0.38995 z m -2.364791,-1.544071 c 0.185511,-0.09871 0.418824,-0.330936 0.518472,-0.516055 0.151469,-0.281393 0.09302,-0.388359 -0.356512,-0.652371 -0.4071292,-0.239111 -0.5251283,-0.42268 -0.4859562,-0.755989 0.0493,-0.419536 0.1055759,-0.440197 1.1987932,-0.440197 1.098824,0 1.149267,0.01886 1.199587,0.448376 0.0388,0.33122 -0.06494,0.510883 -0.397061,0.687603 -0.553945,0.294755 -0.578091,0.772358 -0.05737,1.13498 0.60264,0.419674 0.922244,0.331731 1.387051,-0.381663 0.234644,-0.360135 0.764678,-0.840081 1.177854,-1.066547 0.413177,-0.226464 0.837227,-0.571516 0.942336,-0.766779 0.320767,-0.595909 0.537786,-2.57581 0.325556,-2.9700843 -0.103518,-0.192321 -1.033327,-1.016764 -2.066233,-1.832096 -2.493495,-1.9682593 -2.508863,-1.9682582 -5.0152486,5.089e-4 -1.037239,0.8147508 -1.9706568,1.6388428 -2.0742611,1.8313149 -0.2144224,0.3983435 0.0057,2.3763995 0.3318708,2.9823625 0.108659,0.201866 0.4533001,0.495513 0.7658631,0.65255 0.6962925,0.349826 1.3624158,0.938969 1.3624158,1.204964 0,0.529313 0.6450437,0.757218 1.242853,0.439122 z M 8.8823526,10.840079 c 0,-0.104544 -0.1534156,-0.190075 -0.3409241,-0.190075 -0.3464873,0 -1.1941291,-0.9886316 -1.0070877,-1.1745971 0.056246,-0.055922 0.4818164,0.0532 0.9457221,0.2424888 0.6683669,0.2727116 0.8434668,0.4294673 0.8434668,0.7551013 0,0.22602 -0.09926,0.443843 -0.220588,0.484052 -0.1213242,0.04021 -0.2205891,-0.01243 -0.2205891,-0.11697 z m 3.7696994,-0.102344 c -0.05586,-0.14475 -0.06115,-0.367936 -0.01174,-0.495969 0.09947,-0.2577354 1.677341,-0.913499 1.830828,-0.7608957 0.18302,0.1819621 -0.671962,1.1691377 -1.012573,1.1691377 -0.187507,0 -0.340925,0.07896 -0.340925,0.175455 0,0.272758 -0.352066,0.206422 -0.465595,-0.08773 z M 6.4117649,8.0155008 C 6.5993797,7.8930486 6.6181735,7.8044098 6.4762921,7.711142 6.3661913,7.6387643 6.246376,7.4236255 6.2100233,7.23305 6.1275709,6.8007801 5.4448878,6.4450836 4.6911724,6.4416847 3.9425162,6.4383514 3.9485129,6.762179 4.7120147,7.5670587 5.3139482,8.2016185 5.8926717,8.3543029 6.4117661,8.0155008 Z M 17.287985,7.5670587 c 0.763497,-0.8048797 0.769492,-1.1287507 0.02084,-1.125374 -0.753715,0.00344 -1.436396,0.3590954 -1.51885,0.7913653 -0.03635,0.1905755 -0.156175,0.4057176 -0.26627,0.478092 -0.141877,0.093267 -0.123083,0.1819066 0.06453,0.3043588 0.519095,0.3388021 1.097818,0.1861177 1.69975,-0.4484421 z M 7.1829833,6.4642547 C 7.4439549,6.1775459 7.448063,6.1125693 7.2172585,5.9221193 6.8221623,5.5961061 5.6854988,5.5040795 5.0882387,5.7497483 L 4.5588271,5.9675104 5.2081167,6.0859415 C 5.5652263,6.1510745 6.0416975,6.3319981 6.26694,6.4879869 6.7940115,6.852999 6.8299886,6.8520679 7.1829867,6.4642539 Z m 8.5148867,0.0325 C 15.945456,6.3354636 16.438986,6.1504026 16.794602,6.0855071 L 17.441175,5.9675149 16.911764,5.7497527 c -0.59726,-0.2456688 -1.733924,-0.1536421 -2.129019,0.1723711 -0.230807,0.1904499 -0.2267,0.2554266 0.03428,0.5421353 0.35944,0.3948921 0.326434,0.3936743 0.880853,0.0325 z"
	 class="ColorScheme-Text"
     />
</g></svg>

<svg viewBox="0 0 24 24" xmlns="http://www.w3.org/2000/svg">
 <defs>
  <style type="text/css">.ColorScheme-Text {
        color:#2e3440;
      }</style>
 </defs>
 <g transform="translate(1,1)">
  <path class="ColorScheme-Text" d="m10.294 20.038c-0.68669-1.0691-0.93295-1.241-1.244-0.8684-0.11604 0.13901-0.2737 0.25275-0.35035 0.25275-0.076652 0-0.51088-0.51762-0.96494-1.1503-0.90074-1.255-1.3391-1.4045-1.5081-0.51441-0.094019 0.49508-0.14102 0.44332-0.84549-0.93103-0.41026-0.80039-0.86746-1.5016-1.016-1.5583-0.14854-0.05667-0.4738-0.01078-0.7228 0.10204-0.249 0.1128-0.49262 0.16542-0.54138 0.11695-0.048759-0.04848 0.083437-0.77031 0.29376-1.6041 0.45533-1.805 0.35836-2.0639-0.70951-1.8941-0.52571 0.08358-0.68528 0.05096-0.68528-0.14014 0-0.137 0.50907-1.1081 1.1313-2.158 1.0637-1.7949 1.1156-1.9327 0.86953-2.3061-0.64217-0.97443 0.3132-2.1744 1.7312-2.1744 0.37388 0 0.67979-0.047822 0.67979-0.10627 0-0.058444-0.19853-0.34084-0.44118-0.62755-0.24265-0.28671-0.44118-0.58457-0.44118-0.66191 0-0.077344 0.52193-0.043111 1.1599 0.076078l1.1599 0.2167-0.10955-0.434c-0.060258-0.2387-0.15502-0.65999-0.21058-0.93621l-0.10103-0.50222 2.225 0.8989 0.31229-0.40926c0.17176-0.2251 0.4472-0.70534 0.61208-1.0672 0.16489-0.36188 0.35508-0.65795 0.42266-0.65795 0.06758 0 0.25778 0.29608 0.42266 0.65795 0.16489 0.36187 0.44032 0.84212 0.61208 1.0672l0.31229 0.40926 2.225-0.8989-0.10103 0.50222c-0.05556 0.27622-0.15145 0.70196-0.21307 0.94609-0.12164 0.48187-0.17734 0.48092 1.8156 0.030945 0.54346-0.12271 0.49804 0.14138-0.15063 0.87593l-0.54769 0.6202h0.7863c1.5253 0 2.506 1.1604 1.8377 2.1744-0.24609 0.37342-0.19412 0.51124 0.86953 2.3061 0.6222 1.0499 1.1313 2.021 1.1313 2.158 0 0.19109-0.15956 0.22372-0.68528 0.14014-1.0679-0.16978-1.1648 0.08911-0.70951 1.8941 0.21032 0.83376 0.34251 1.5556 0.29375 1.6041-0.04876 0.04848-0.29238-0.0041-0.54138-0.11695-0.249-0.1128-0.57426-0.15872-0.7228-0.10204-0.14854 0.05667-0.60574 0.7579-1.016 1.5583-0.70446 1.3744-0.75146 1.4261-0.84549 0.93103-0.16904-0.89011-0.60739-0.74059-1.5081 0.51441-0.45406 0.63264-0.88828 1.1503-0.96494 1.1503-0.07665 0-0.23432-0.11374-0.35035-0.25275-0.31106-0.37264-0.55731-0.20074-1.244 0.8684-0.3397 0.5289-0.65735 0.96164-0.70588 0.96164-0.04854 0-0.36618-0.43274-0.70588-0.96164zm2.1959-3.462c0.4374-0.62089 0.35392-1.0137-0.21544-1.0137-0.26958 0-0.66664-0.12291-0.88235-0.27313-0.35498-0.24721-0.42944-0.24721-0.78441 0-0.21571 0.15022-0.61277 0.27313-0.88235 0.27313-0.56936 0-0.65284 0.3928-0.21544 1.0137 0.23866 0.33877 0.43421 0.38995 1.49 0.38995 1.0558 0 1.2513-0.05118 1.49-0.38995zm-2.3648-1.5441c0.18551-0.09871 0.41882-0.33094 0.51847-0.51606 0.15147-0.28139 0.09302-0.38836-0.35651-0.65237-0.40713-0.23911-0.52513-0.42268-0.48596-0.75599 0.0493-0.41954 0.10558-0.4402 1.1988-0.4402 1.0988 0 1.1493 0.01886 1.1996 0.44838 0.0388 0.33122-0.06494 0.51088-0.39706 0.6876-0.55394 0.29476-0.57809 0.77236-0.05737 1.135 0.60264 0.41967 0.92224 0.33173 1.3871-0.38166 0.23464-0.36014 0.76468-0.84008 1.1779-1.0665 0.41318-0.22646 0.83723-0.57152 0.94234-0.76678 0.32077-0.59591 0.53779-2.5758 0.32556-2.9701-0.10352-0.19232-1.0333-1.0168-2.0662-1.8321-2.4935-1.9683-2.5089-1.9683-5.0152 5.089e-4 -1.0372 0.81475-1.9707 1.6388-2.0743 1.8313-0.21442 0.39834 0.0057 2.3764 0.33187 2.9824 0.10866 0.20187 0.4533 0.49551 0.76586 0.65255 0.69629 0.34983 1.3624 0.93897 1.3624 1.205 0 0.52931 0.64504 0.75722 1.2429 0.43912zm-1.2429-4.1923c0-0.10454-0.15342-0.19008-0.34092-0.19008-0.34649 0-1.1941-0.98863-1.0071-1.1746 0.056246-0.055922 0.48182 0.0532 0.94572 0.24249 0.66837 0.27271 0.84347 0.42947 0.84347 0.7551 0 0.22602-0.09926 0.44384-0.22059 0.48405-0.12132 0.04021-0.22059-0.01243-0.22059-0.11697zm3.7697-0.10234c-0.05586-0.14475-0.06115-0.36794-0.01174-0.49597 0.09947-0.25774 1.6773-0.9135 1.8308-0.7609 0.18302 0.18196-0.67196 1.1691-1.0126 1.1691-0.18751 0-0.34092 0.07896-0.34092 0.17546 0 0.27276-0.35207 0.20642-0.4656-0.08773zm-6.2403-2.7222c0.18761-0.12245 0.20641-0.21109 0.064527-0.30436-0.1101-0.072378-0.22992-0.28752-0.26627-0.47809-0.082452-0.43227-0.76514-0.78797-1.5189-0.79137-0.74866-0.0033333-0.74266 0.32049 0.020842 1.1254 0.60193 0.63456 1.1807 0.78724 1.6998 0.44844zm10.876-0.44844c0.7635-0.80488 0.76949-1.1288 0.02084-1.1254-0.75372 0.00344-1.4364 0.3591-1.5188 0.79137-0.03635 0.19058-0.15618 0.40572-0.26627 0.47809-0.14188 0.093267-0.12308 0.18191 0.06453 0.30436 0.5191 0.3388 1.0978 0.18612 1.6998-0.44844zm-10.105-1.1028c0.26097-0.28671 0.26508-0.35169 0.034275-0.54214-0.3951-0.32601-1.5318-0.41804-2.129-0.17237l-0.52941 0.21776 0.64929 0.11843c0.35711 0.065133 0.83358 0.24606 1.0588 0.40205 0.52707 0.36501 0.56305 0.36408 0.91605-0.023733zm8.5149 0.0325c0.24759-0.16129 0.74112-0.34635 1.0967-0.41125l0.64657-0.11799-0.52941-0.21776c-0.59726-0.24567-1.7339-0.15364-2.129 0.17237-0.23081 0.19045-0.2267 0.25543 0.03428 0.54214 0.35944 0.39489 0.32643 0.39367 0.88085 0.0325z" fill="currentColor"/>
 </g>
</svg>
